!!!COM: Leoš [Leo Eugen] Janáček
!!!OTL: [T123_Jan-w11p5s2-3]
**kern	**dynam	**kern	**dynam	**kern	**dynam	**kern	**dynam	**kern	**dynam	**kern	**dynam	**kern	**dynam	**kern	**dynam	**kern	**dynam	**kern	**dynam	**kern	**dynam	**kern	**dynam	**kern	**dynam	**kern	**dynam	**kern	**dynam	**kern	**dynam	**kern	**dynam	**kern	**dynam
*grp:A	*grp:A	*grp:A	*grp:A	*grp:A	*grp:A	*grp:B	*grp:B	*grp:B	*grp:B	*grp:B	*grp:B	*grp:B	*grp:B	*grp:B	*grp:B	*grp:A	*grp:A	*grp:B	*grp:B	*grp:B	*grp:B	*grp:B	*grp:B	*grp:B	*grp:B	*grp:A	*grp:A	*grp:A	*grp:A	*grp:B	*grp:B	*grp:B	*grp:B	*grp:B	*grp:B
*part18	*part18	*part17	*part17	*part16	*part16	*part15	*part15	*part14	*part14	*part13	*part13	*part12	*part12	*part11	*part11	*part10	*part10	*part9	*part9	*part8	*part8	*part7	*part7	*part6	*part6	*part5	*part5	*part4	*part4	*part3	*part3	*part2	*part2	*part1	*part1
*staff18	*staff18	*staff17	*staff17	*staff16	*staff16	*staff15	*staff15	*staff14	*staff14	*staff13	*staff13	*staff12	*staff12	*staff11	*staff11	*staff10	*staff10	*staff9	*staff9	*staff8	*staff8	*staff7	*staff7	*staff6	*I"Horn in F 2	*staff5	*staff5	*staff4	*staff4	*staff3	*staff3	*staff2	*staff2	*staff1	*staff1
*I"Contrabass	*I"Contrabass	*I"Violoncello	*I"Violoncello	*I"Viola	*I"Viola	*I"Violin II	*I"Violin II	*I"Violin I	*I"Violin I	*I"Timpani	*I"Timpani	*I"Trombone 3	*I"Trombone 3	*I"Trombone 1, 2	*I"Trombone 1, 2	*I"Trumpet in Bb 1, 2	*I"Trumpet in Bb 1, 2	*I"Horn in F 4 (ossia ES)	*I"Horn in F 4 (ossia ES)	*I"Horn in F 3	*I"Horn in F 3	*I"Horn in F 2	*I"Horn in F 2	*I"Horn in F 1	*I"Horn in F 1	*I"Bassoon 2	*I"Bassoon 2	*I"Bassoon 1	*I"Bassoon 1	*I"Clarinet in Bb 1, 2	*I"Clarinet in Bb 1, 2	*I"Oboe 1, 2	*I"Oboe 1, 2	*I"Flute 1, 2	*I"Flute 1, 2
*I'Cb.	*	*I'Vc.	*	*I'Vla.	*	*I'Vln. II	*	*I'Vln. I	*	*I'Timp.	*	*I'Tbn.	*	*I'Tbn.	*	*I'Tpt.	*	*I'Hn.	*	*I'Hn.	*	*I'Hn.	*	*I'Hn.	*	*I'Bsn.	*	*I'Bsn.	*	*I'Cl.	*	*I'Ob.	*	*I'Fl.	*
!!pagebreak:original
*clefF4	*	*clefF4	*	*clefC3	*	*clefG2	*	*clefG2	*	*clefF4	*	*clefF4	*	*clefF4	*	*clefG2	*	*clefG2	*	*clefG2	*	*clefG2	*	*clefG2	*	*clefF4	*	*clefF4	*	*clefG2	*	*clefG2	*	*clefG2	*
*ITrd7c12	*	*	*	*	*	*	*	*	*	*	*	*	*	*	*	*ITrd1c2	*	*ITrd4c7	*	*ITrd4c7	*	*ITrd4c7	*	*ITrd4c7	*	*	*	*	*	*ITrd1c2	*	*	*	*	*
*k[]	*	*k[]	*	*k[]	*	*k[]	*	*k[]	*	*k[]	*	*k[]	*	*k[]	*	*k[b-e-]	*	*k[b-]	*	*k[b-]	*	*k[b-]	*	*k[b-]	*	*k[]	*	*k[]	*	*k[]	*	*k[]	*	*k[]	*
*C:	*	*C:	*	*C:	*	*C:	*	*C:	*	*C:	*	*C:	*	*C:	*	*B-:	*	*F:	*	*F:	*	*F:	*	*F:	*	*C:	*	*C:	*	*C:	*	*C:	*	*C:	*
*M2/4	*	*M2/4	*	*M2/4	*	*M2/4	*	*M2/4	*	*M2/4	*	*M2/4	*	*M2/4	*	*M2/4	*	*M2/4	*	*M2/4	*	*M2/4	*	*M2/4	*	*M2/4	*	*M2/4	*	*M2/4	*	*M2/4	*	*M2/4	*
=1	=1	=1	=1	=1	=1	=1	=1	=1	=1	=1	=1	=1	=1	=1	=1	=1	=1	=1	=1	=1	=1	=1	=1	=1	=1	=1	=1	=1	=1	=1	=1	=1	=1	=1	=1
*	*	*	*	*	*	*	*	*	*	*tremolo	*	*	*	*	*	*	*	*	*	*	*	*	*	*	*	*	*	*	*	*	*	*	*	*	*
!LO:TX:a:t=arco	!	!LO:TX:a:t=arco	!	!	!	!	!	!	!	!LO:T:dot	!	!	!	!LO:TX:a:B:t=unis.	!	!	!	!	!	!	!	!	!	!	!	!	!	!	!	!LO:TX:a:B:t=unis.	!	!	!	!	!
4ryy	4ryy	12ryy	4ryy	12ryy	4ryy	8dd'^L	f	8ddd'^L	f	[[32DLLL	f	4AA-X^	f	4A-X^	f	2ryy	.	2r	.	4r	.	4r	.	4r	.	4ryy	4ryy	2ryy	4ryy	(4d^	f	(4dd^	f	2r	.
.	.	.	.	.	.	.	.	.	.	32D	.	.	.	.	.	.	.	.	.	.	.	.	.	.	.	.	.	.	.	.	.	.	.	.	.
.	.	.	.	.	.	.	.	.	.	32D	.	.	.	.	.	.	.	.	.	.	.	.	.	.	.	.	.	.	.	.	.	.	.	.	.
.	.	12ryy	.	12ryy	.	.	.	.	.	.	.	.	.	.	.	.	.	.	.	.	.	.	.	.	.	.	.	.	.	.	.	.	.	.	.
.	.	.	.	.	.	.	.	.	.	32D	.	.	.	.	.	.	.	.	.	.	.	.	.	.	.	.	.	.	.	.	.	.	.	.	.
.	.	.	.	.	.	(8dd	.	(8ddd	.	32D	.	.	.	.	.	.	.	.	.	.	.	.	.	.	.	.	.	.	.	.	.	.	.	.	.
.	.	.	.	.	.	.	.	.	.	32D	.	.	.	.	.	.	.	.	.	.	.	.	.	.	.	.	.	.	.	.	.	.	.	.	.
.	.	12ryy	.	12ryy	.	.	.	.	.	.	.	.	.	.	.	.	.	.	.	.	.	.	.	.	.	.	.	.	.	.	.	.	.	.	.
.	.	.	.	.	.	.	.	.	.	32D	.	.	.	.	.	.	.	.	.	.	.	.	.	.	.	.	.	.	.	.	.	.	.	.	.
.	.	.	.	.	.	.	.	.	.	32D	.	.	.	.	.	.	.	.	.	.	.	.	.	.	.	.	.	.	.	.	.	.	.	.	.
4ryy	.	12ryy	.	12ryy	.	8b)	.	8bb)	.	32D	.	4r	.	4r	.	.	.	.	.	4BX^	f	4F^	f	4d^	f	4ryy	.	.	.	4B')	.	4b')	.	.	.
.	.	.	.	.	.	.	.	.	.	32D	.	.	.	.	.	.	.	.	.	.	.	.	.	.	.	.	.	.	.	.	.	.	.	.	.
.	.	.	.	.	.	.	.	.	.	32D	.	.	.	.	.	.	.	.	.	.	.	.	.	.	.	.	.	.	.	.	.	.	.	.	.
.	.	12ryy	.	12ryy	.	.	.	.	.	.	.	.	.	.	.	.	.	.	.	.	.	.	.	.	.	.	.	.	.	.	.	.	.	.	.
.	.	.	.	.	.	.	.	.	.	32D	.	.	.	.	.	.	.	.	.	.	.	.	.	.	.	.	.	.	.	.	.	.	.	.	.
.	.	.	.	.	.	8b'J	.	8bb'J	.	32D	.	.	.	.	.	.	.	.	.	.	.	.	.	.	.	.	.	.	.	.	.	.	.	.	.
.	.	.	.	.	.	.	.	.	.	32D	.	.	.	.	.	.	.	.	.	.	.	.	.	.	.	.	.	.	.	.	.	.	.	.	.
.	.	12ryy	.	12ryy	.	.	.	.	.	.	.	.	.	.	.	.	.	.	.	.	.	.	.	.	.	.	.	.	.	.	.	.	.	.	.
.	.	.	.	.	.	.	.	.	.	32D	.	.	.	.	.	.	.	.	.	.	.	.	.	.	.	.	.	.	.	.	.	.	.	.	.
.	.	.	.	.	.	.	.	.	.	32DJJJ	.	.	.	.	.	.	.	.	.	.	.	.	.	.	.	.	.	.	.	.	.	.	.	.	.
=2	=2	=2	=2	=2	=2	=2	=2	=2	=2	=2	=2	=2	=2	=2	=2	=2	=2	=2	=2	=2	=2	=2	=2	=2	=2	=2	=2	=2	=2	=2	=2	=2	=2	=2	=2
!	!	!	!	!	!	!	!	!	!	!LO:T:dot	!	!	!	!	!	!	!	!	!	!	!	!	!	!	!	!	!	!	!	!	!	!	!	!	!
4ryy	.	12ryy	.	12ryy	.	8dd'L	.	8ddd'L	.	32DLLL__	.	4AA-X^	.	4A-X^	.	2ryy	.	2r	.	4r	.	4r	.	4r	.	4ryy	.	2ryy	.	(4d^	.	(4dd^	.	2r	.
.	.	.	.	.	.	.	.	.	.	32D	.	.	.	.	.	.	.	.	.	.	.	.	.	.	.	.	.	.	.	.	.	.	.	.	.
.	.	.	.	.	.	.	.	.	.	32D	.	.	.	.	.	.	.	.	.	.	.	.	.	.	.	.	.	.	.	.	.	.	.	.	.
.	.	12ryy	.	12ryy	.	.	.	.	.	.	.	.	.	.	.	.	.	.	.	.	.	.	.	.	.	.	.	.	.	.	.	.	.	.	.
.	.	.	.	.	.	.	.	.	.	32D	.	.	.	.	.	.	.	.	.	.	.	.	.	.	.	.	.	.	.	.	.	.	.	.	.
.	.	.	.	.	.	(8dd	.	(8ddd	.	32D	.	.	.	.	.	.	.	.	.	.	.	.	.	.	.	.	.	.	.	.	.	.	.	.	.
.	.	.	.	.	.	.	.	.	.	32D	.	.	.	.	.	.	.	.	.	.	.	.	.	.	.	.	.	.	.	.	.	.	.	.	.
.	.	12ryy	.	12ryy	.	.	.	.	.	.	.	.	.	.	.	.	.	.	.	.	.	.	.	.	.	.	.	.	.	.	.	.	.	.	.
.	.	.	.	.	.	.	.	.	.	32D	.	.	.	.	.	.	.	.	.	.	.	.	.	.	.	.	.	.	.	.	.	.	.	.	.
.	.	.	.	.	.	.	.	.	.	32D	.	.	.	.	.	.	.	.	.	.	.	.	.	.	.	.	.	.	.	.	.	.	.	.	.
4ryy	.	12ryy	.	12ryy	.	8b)	.	8bb)	.	32D	.	4r	.	4r	.	.	.	.	.	4BX^	.	4F^	.	4d^	.	4ryy	.	.	.	4B')	.	4b')	.	.	.
.	.	.	.	.	.	.	.	.	.	32D	.	.	.	.	.	.	.	.	.	.	.	.	.	.	.	.	.	.	.	.	.	.	.	.	.
.	.	.	.	.	.	.	.	.	.	32D	.	.	.	.	.	.	.	.	.	.	.	.	.	.	.	.	.	.	.	.	.	.	.	.	.
.	.	12ryy	.	12ryy	.	.	.	.	.	.	.	.	.	.	.	.	.	.	.	.	.	.	.	.	.	.	.	.	.	.	.	.	.	.	.
.	.	.	.	.	.	.	.	.	.	32D	.	.	.	.	.	.	.	.	.	.	.	.	.	.	.	.	.	.	.	.	.	.	.	.	.
.	.	.	.	.	.	8b'J	.	8bb'J	.	32D	.	.	.	.	.	.	.	.	.	.	.	.	.	.	.	.	.	.	.	.	.	.	.	.	.
.	.	.	.	.	.	.	.	.	.	32D	.	.	.	.	.	.	.	.	.	.	.	.	.	.	.	.	.	.	.	.	.	.	.	.	.
.	.	12ryy	.	12ryy	.	.	.	.	.	.	.	.	.	.	.	.	.	.	.	.	.	.	.	.	.	.	.	.	.	.	.	.	.	.	.
.	.	.	.	.	.	.	.	.	.	32D	.	.	.	.	.	.	.	.	.	.	.	.	.	.	.	.	.	.	.	.	.	.	.	.	.
.	.	.	.	.	.	.	.	.	.	32DJJJ	.	.	.	.	.	.	.	.	.	.	.	.	.	.	.	.	.	.	.	.	.	.	.	.	.
=3	=3	=3	=3	=3	=3	=3	=3	=3	=3	=3	=3	=3	=3	=3	=3	=3	=3	=3	=3	=3	=3	=3	=3	=3	=3	=3	=3	=3	=3	=3	=3	=3	=3	=3	=3
4ryy	.	12ryy	.	12ryy	.	8dd'L	.	8ddd'L	.	32DLLL]]	.	4AA-X^	.	4A-X^	.	2ryy	.	2r	.	4r	.	4r	.	4r	.	4ryy	.	2ryy	.	(4d^	.	(4dd^	.	2r	.
.	.	.	.	.	.	.	.	.	.	32D	.	.	.	.	.	.	.	.	.	.	.	.	.	.	.	.	.	.	.	.	.	.	.	.	.
.	.	.	.	.	.	.	.	.	.	32D	.	.	.	.	.	.	.	.	.	.	.	.	.	.	.	.	.	.	.	.	.	.	.	.	.
.	.	12ryy	.	12ryy	.	.	.	.	.	.	.	.	.	.	.	.	.	.	.	.	.	.	.	.	.	.	.	.	.	.	.	.	.	.	.
.	.	.	.	.	.	.	.	.	.	32D	.	.	.	.	.	.	.	.	.	.	.	.	.	.	.	.	.	.	.	.	.	.	.	.	.
.	.	.	.	.	.	(8dd	.	(8ddd	.	32D	.	.	.	.	.	.	.	.	.	.	.	.	.	.	.	.	.	.	.	.	.	.	.	.	.
.	.	.	.	.	.	.	.	.	.	32D	.	.	.	.	.	.	.	.	.	.	.	.	.	.	.	.	.	.	.	.	.	.	.	.	.
.	.	12ryy	.	12ryy	.	.	.	.	.	.	.	.	.	.	.	.	.	.	.	.	.	.	.	.	.	.	.	.	.	.	.	.	.	.	.
.	.	.	.	.	.	.	.	.	.	32D	.	.	.	.	.	.	.	.	.	.	.	.	.	.	.	.	.	.	.	.	.	.	.	.	.
.	.	.	.	.	.	.	.	.	.	32D	.	.	.	.	.	.	.	.	.	.	.	.	.	.	.	.	.	.	.	.	.	.	.	.	.
4ryy	.	12ryy	.	12ryy	.	8b)	.	8bb)	.	32D	.	4r	.	4r	.	.	.	.	.	4BX^	.	4F^	.	4d^	.	4ryy	.	.	.	4B')	.	4b')	.	.	.
.	.	.	.	.	.	.	.	.	.	32D	.	.	.	.	.	.	.	.	.	.	.	.	.	.	.	.	.	.	.	.	.	.	.	.	.
.	.	.	.	.	.	.	.	.	.	32D	.	.	.	.	.	.	.	.	.	.	.	.	.	.	.	.	.	.	.	.	.	.	.	.	.
.	.	12ryy	.	12ryy	.	.	.	.	.	.	.	.	.	.	.	.	.	.	.	.	.	.	.	.	.	.	.	.	.	.	.	.	.	.	.
.	.	.	.	.	.	.	.	.	.	32D	.	.	.	.	.	.	.	.	.	.	.	.	.	.	.	.	.	.	.	.	.	.	.	.	.
.	.	.	.	.	.	8b'J	.	8bb'J	.	32D	.	.	.	.	.	.	.	.	.	.	.	.	.	.	.	.	.	.	.	.	.	.	.	.	.
.	.	.	.	.	.	.	.	.	.	32D	.	.	.	.	.	.	.	.	.	.	.	.	.	.	.	.	.	.	.	.	.	.	.	.	.
.	.	12ryy	.	12ryy	.	.	.	.	.	.	.	.	.	.	.	.	.	.	.	.	.	.	.	.	.	.	.	.	.	.	.	.	.	.	.
.	.	.	.	.	.	.	.	.	.	32D	.	.	.	.	.	.	.	.	.	.	.	.	.	.	.	.	.	.	.	.	.	.	.	.	.
.	.	.	.	.	.	.	.	.	.	32D)JJJ	.	.	.	.	.	.	.	.	.	.	.	.	.	.	.	.	.	.	.	.	.	.	.	.	.
*	*	*	*	*	*	*	*	*	*	*Xtremolo	*	*	*	*	*	*	*	*	*	*	*	*	*	*	*	*	*	*	*	*	*	*	*	*	*
=4	=4	=4	=4	=4	=4	=4	=4	=4	=4	=4	=4	=4	=4	=4	=4	=4	=4	=4	=4	=4	=4	=4	=4	=4	=4	=4	=4	=4	=4	=4	=4	=4	=4	=4	=4
12ryy	4ryy	12ryy	4ryy	12ryy	4ryy	8r	.	8r	.	4r	.	4r	.	4r	.	2ryy	.	2r	.	4r	.	4r	.	4r	.	12ryy	4ryy	4ryy	.	4A-X'	.	4g#X'	.	2r	.
12ryy	.	12ryy	.	12ryy	.	.	.	.	.	.	.	.	.	.	.	.	.	.	.	.	.	.	.	.	.	12ryy	.	.	.	.	.	.	.	.	.
.	.	.	.	.	.	(8bL	.	(8bbL	.	.	.	.	.	.	.	.	.	.	.	.	.	.	.	.	.	.	.	.	.	.	.	.	.	.	.
12ryy	4ryy	12ryy	4ryy	12ryy	4ryy	.	.	.	.	.	.	.	.	.	.	.	.	.	.	.	.	.	.	.	.	12ryy	4ryy	.	.	.	.	.	.	.	.
4ryy	4ryy	4ryy	4ryy	4ryy	4ryy	8gg#X'^J)	.	8ggg#X'^J)	.	4D^	.	8C-XL	sf	8c-XL	sf	.	.	.	.	8fL	sf	8dL	sf	8a-XL	sf	4ryy	4ryy	4ryy	4ryy	4r	.	4r	.	.	.
.	.	.	.	.	.	8r	.	8r	.	.	.	8rJ	.	8rJ	.	.	.	.	.	8rJ	.	8rJ	.	8rJ	.	.	.	.	.	.	.	.	.	.	.
=5	=5	=5	=5	=5	=5	=5	=5	=5	=5	=5	=5	=5	=5	=5	=5	=5	=5	=5	=5	=5	=5	=5	=5	=5	=5	=5	=5	=5	=5	=5	=5	=5	=5	=5	=5
4ryy	.	12ryy	.	12ryy	.	8dd'^L	.	8ddd'^L	.	4D	.	4AA-X^	.	4A-X^	.	2ryy	.	2r	.	4r	.	4r	.	4r	.	4ryy	.	2ryy	.	(4d^	.	(4dd^	.	2r	.
.	.	12ryy	.	12ryy	.	.	.	.	.	.	.	.	.	.	.	.	.	.	.	.	.	.	.	.	.	.	.	.	.	.	.	.	.	.	.
.	.	.	.	.	.	(8dd	.	(8ddd	.	.	.	.	.	.	.	.	.	.	.	.	.	.	.	.	.	.	.	.	.	.	.	.	.	.	.
.	.	12ryy	.	12ryy	.	.	.	.	.	.	.	.	.	.	.	.	.	.	.	.	.	.	.	.	.	.	.	.	.	.	.	.	.	.	.
4ryy	.	12ryy	.	12ryy	.	8b)	.	8bb)	.	4r	.	4r	.	4r	.	.	.	.	.	4BX^	f	4F^	.	4d^	.	4ryy	.	.	.	4B')	.	4b')	.	.	.
.	.	12ryy	.	12ryy	.	.	.	.	.	.	.	.	.	.	.	.	.	.	.	.	.	.	.	.	.	.	.	.	.	.	.	.	.	.	.
.	.	.	.	.	.	8b'J	.	8bb'J	.	.	.	.	.	.	.	.	.	.	.	.	.	.	.	.	.	.	.	.	.	.	.	.	.	.	.
.	.	12ryy	.	12ryy	.	.	.	.	.	.	.	.	.	.	.	.	.	.	.	.	.	.	.	.	.	.	.	.	.	.	.	.	.	.	.
=6	=6	=6	=6	=6	=6	=6	=6	=6	=6	=6	=6	=6	=6	=6	=6	=6	=6	=6	=6	=6	=6	=6	=6	=6	=6	=6	=6	=6	=6	=6	=6	=6	=6	=6	=6
4ryy	.	12ryy	.	12ryy	.	8dd'L	.	8ddd'L	.	4D	.	4AA-X^	.	4A-X^	.	2ryy	.	2r	.	4r	.	4r	.	4r	.	4ryy	.	2ryy	.	(4d^	.	(4dd^	.	2r	.
.	.	12ryy	.	12ryy	.	.	.	.	.	.	.	.	.	.	.	.	.	.	.	.	.	.	.	.	.	.	.	.	.	.	.	.	.	.	.
.	.	.	.	.	.	(8dd	.	(8ddd	.	.	.	.	.	.	.	.	.	.	.	.	.	.	.	.	.	.	.	.	.	.	.	.	.	.	.
.	.	12ryy	.	12ryy	.	.	.	.	.	.	.	.	.	.	.	.	.	.	.	.	.	.	.	.	.	.	.	.	.	.	.	.	.	.	.
4ryy	.	12ryy	.	12ryy	.	8b)	.	8bb)	.	4r	.	4r	.	4r	.	.	.	.	.	4BX^	.	4F^	.	4d^	.	4ryy	.	.	.	4B')	.	4b')	.	.	.
.	.	12ryy	.	12ryy	.	.	.	.	.	.	.	.	.	.	.	.	.	.	.	.	.	.	.	.	.	.	.	.	.	.	.	.	.	.	.
.	.	.	.	.	.	8b'J	.	8bb'J	.	.	.	.	.	.	.	.	.	.	.	.	.	.	.	.	.	.	.	.	.	.	.	.	.	.	.
.	.	12ryy	.	12ryy	.	.	.	.	.	.	.	.	.	.	.	.	.	.	.	.	.	.	.	.	.	.	.	.	.	.	.	.	.	.	.
=7	=7	=7	=7	=7	=7	=7	=7	=7	=7	=7	=7	=7	=7	=7	=7	=7	=7	=7	=7	=7	=7	=7	=7	=7	=7	=7	=7	=7	=7	=7	=7	=7	=7	=7	=7
4ryy	.	12ryy	.	12ryy	.	8dd'L	.	8ddd'L	.	4D	.	4AA-X^	.	4A-X^	.	2ryy	.	2r	.	4r	.	4r	.	4r	.	4ryy	.	2ryy	.	(4d^	.	(4dd^	.	2r	.
.	.	12ryy	.	12ryy	.	.	.	.	.	.	.	.	.	.	.	.	.	.	.	.	.	.	.	.	.	.	.	.	.	.	.	.	.	.	.
.	.	.	.	.	.	(8dd	.	(8ddd	.	.	.	.	.	.	.	.	.	.	.	.	.	.	.	.	.	.	.	.	.	.	.	.	.	.	.
.	.	12ryy	.	12ryy	.	.	.	.	.	.	.	.	.	.	.	.	.	.	.	.	.	.	.	.	.	.	.	.	.	.	.	.	.	.	.
4ryy	.	12ryy	.	12ryy	.	8b)	.	8bb)	.	4r	.	4r	.	4r	.	.	.	.	.	4BX^	.	4F^	.	4d^	.	4ryy	.	.	.	4B')	.	4b')	.	.	.
.	.	12ryy	.	12ryy	.	.	.	.	.	.	.	.	.	.	.	.	.	.	.	.	.	.	.	.	.	.	.	.	.	.	.	.	.	.	.
.	.	.	.	.	.	8b'J	.	8bb'J	.	.	.	.	.	.	.	.	.	.	.	.	.	.	.	.	.	.	.	.	.	.	.	.	.	.	.
.	.	12ryy	.	12ryy	.	.	.	.	.	.	.	.	.	.	.	.	.	.	.	.	.	.	.	.	.	.	.	.	.	.	.	.	.	.	.
=8	=8	=8	=8	=8	=8	=8	=8	=8	=8	=8	=8	=8	=8	=8	=8	=8	=8	=8	=8	=8	=8	=8	=8	=8	=8	=8	=8	=8	=8	=8	=8	=8	=8	=8	=8
12ryy	4ryy	12ryy	4ryy	12ryy	4ryy	8r	.	8r	.	4r	.	4r	.	4r	.	2ryy	.	2r	.	4r	.	4r	.	4r	.	12ryy	4ryy	4ryy	.	4A-X'	.	4g#X'	.	2r	.
12ryy	.	12ryy	.	12ryy	.	.	.	.	.	.	.	.	.	.	.	.	.	.	.	.	.	.	.	.	.	12ryy	.	.	.	.	.	.	.	.	.
.	.	.	.	.	.	(8bL	.	(8bbL	.	.	.	.	.	.	.	.	.	.	.	.	.	.	.	.	.	.	.	.	.	.	.	.	.	.	.
12ryy	4ryy	12ryy	4ryy	12ryy	4ryy	.	.	.	.	.	.	.	.	.	.	.	.	.	.	.	.	.	.	.	.	12ryy	4ryy	.	.	.	.	.	.	.	.
4ryy	4ryy	4ryy	4ryy	4ryy	4ryy	8gg#X'^J)	.	8ggg#X'^J)	.	4D^	.	8C-XL	.	8c-XL	.	.	.	.	.	8fL	sf	8dL	sf	8a-XL	sf	4ryy	4ryy	4ryy	4ryy	4r	.	4r	.	.	.
.	.	.	.	.	.	8r	.	8r	.	.	.	8rJ	.	8rJ	.	.	.	.	.	8rJ	.	8rJ	.	8rJ	.	.	.	.	.	.	.	.	.	.	.
=9	=9	=9	=9	=9	=9	=9	=9	=9	=9	=9	=9	=9	=9	=9	=9	=9	=9	=9	=9	=9	=9	=9	=9	=9	=9	=9	=9	=9	=9	=9	=9	=9	=9	=9	=9
12ryy	4ryy	12ryy	4ryy	12ryy	4ryy	8d'L 8dd	.	8r	.	4r	.	4FF^	.	4F^	.	2ryy	.	2r	.	4r	.	4r	.	4r	.	12ryy	4ryy	12ryy	4ryy	4r	.	4r	.	4r	.
12ryy	.	12ryy	.	12ryy	.	.	.	.	.	.	.	.	.	.	.	.	.	.	.	.	.	.	.	.	.	12ryy	.	12ryy	.	.	.	.	.	.	.
.	.	.	.	.	.	(8d	.	(8ddL	.	.	.	.	.	.	.	.	.	.	.	.	.	.	.	.	.	.	.	.	.	.	.	.	.	.	.
12ryy	4ryy	12ryy	4ryy	12ryy	4ryy	.	.	.	.	.	.	.	.	.	.	.	.	.	.	.	.	.	.	.	.	12ryy	4ryy	12ryy	4ryy	.	.	.	.	.	.
4ryy	4ryy	4ryy	4ryy	4ryy	4ryy	8b^J)	.	8bb'^J)	.	4D	.	4AA-X^	.	4A-X^	.	.	.	.	.	8BX^L	.	8F^L	.	8d^L	.	4ryy	4ryy	4ryy	4ryy	8bXL	mf	8bXL	mf	8bXL	mf
.	.	.	.	.	.	8r	.	8r	.	.	.	.	.	.	.	.	.	.	.	8rJ	.	8rJ	.	8rJ	.	.	.	.	.	8rJ	.	8rJ	.	8rJ	.
=10	=10	=10	=10	=10	=10	=10	=10	=10	=10	=10	=10	=10	=10	=10	=10	=10	=10	=10	=10	=10	=10	=10	=10	=10	=10	=10	=10	=10	=10	=10	=10	=10	=10	=10	=10
12ryy	4ryy	12ryy	4ryy	12ryy	4ryy	8G#X'L 8g#X	.	8r	.	4r	.	4AA-X^	.	4A-X^	.	2ryy	.	2r	.	4r	.	4r	.	4r	.	12ryy	4ryy	12ryy	4ryy	4r	.	4r	.	4r	.
12ryy	.	12ryy	.	12ryy	.	.	.	.	.	.	.	.	.	.	.	.	.	.	.	.	.	.	.	.	.	12ryy	.	12ryy	.	.	.	.	.	.	.
.	.	.	.	.	.	(8B	.	(8bbL	.	.	.	.	.	.	.	.	.	.	.	.	.	.	.	.	.	.	.	.	.	.	.	.	.	.	.
12ryy	4ryy	12ryy	4ryy	12ryy	4ryy	.	.	.	.	.	.	.	.	.	.	.	.	.	.	.	.	.	.	.	.	12ryy	4ryy	12ryy	4ryy	.	.	.	.	.	.
4ryy	4ryy	4ryy	4ryy	4ryy	4ryy	8g#'^J)	.	8ggg#X'^J)	.	8D'L	.	4C-X^	.	4c-X^	.	.	.	.	.	8f^L	.	8A-X^L	.	8a-X^L	.	4ryy	4ryy	4ryy	4ryy	8a-XL	.	8g#XL	.	8g#XL	.
.	.	.	.	.	.	8r	.	8r	.	8D'J	.	.	.	.	.	.	.	.	.	8rJ	.	8rJ	.	8rJ	.	.	.	.	.	8rJ	.	8rJ	.	8rJ	.
=11	=11	=11	=11	=11	=11	=11	=11	=11	=11	=11	=11	=11	=11	=11	=11	=11	=11	=11	=11	=11	=11	=11	=11	=11	=11	=11	=11	=11	=11	=11	=11	=11	=11	=11	=11
*	*	*	*	*	*	*	*	*	*	*	*	*	*	*	*	*	*	*	*	*	*	*	*	*	*	*	*	*	*	*^	*	*	*	*	*
*	*	*	*	*	*	*	*	*	*	*tremolo	*	*	*	*	*	*	*	*	*	*	*	*	*	*	*	*	*	*	*	*	*	*	*	*	*	*
12ryy	.	12ryy	.	12ryy	.	(16dLL	.	(16fLL	.	4r	.	4FF^	.	4F^	.	4ryy	.	[2BX	f <	8r	.	[2BX	<	8r	.	12ryy	.	12ryy	.	2a-X	8r	.	8r	.	8r	.
.	.	.	.	.	.	16fJJ)	.	16bJJ)	.	.	.	.	.	.	.	.	.	.	.	.	.	.	.	.	.	.	.	.	.	.	.	.	.	.	.	.
12ryy	.	12ryy	.	12ryy	.	.	.	.	.	.	.	.	.	.	.	.	.	.	.	.	.	.	.	.	.	12ryy	.	12ryy	.	.	.	.	.	.	.	.
.	.	.	.	.	.	8r	.	8r	.	.	.	.	.	.	.	.	.	.	.	8A-X'L	<	.	.	8d'L	<	.	.	.	.	.	8fL'	<	8b'L	<	8dd'L	<
12ryy	.	12ryy	.	12ryy	.	.	.	.	.	.	.	.	.	.	.	.	.	.	.	.	.	.	.	.	.	12ryy	.	12ryy	.	.	.	.	.	.	.	.
!	!	!	!	!	!	!	!	!	!	!LO:T:dot	!	!	!	!	!	!	!	!	!	!	!	!	!	!	!	!	!	!	!	!	!	!	!	!	!	!
4ryy	4ryy	4ryy	4ryy	12ryy	4ryy	(16g#XLL	<	(16bLL	<	[[32DLLL	<	4AA-X^	<	4A-X^	<	12ryy	4ryy	.	.	8r	.	.	.	8r	.	4ryy	4ryy	4ryy	4ryy	.	8r	.	8r	.	8r	.
.	.	.	.	.	.	.	.	.	.	32D	.	.	.	.	.	.	.	.	.	.	.	.	.	.	.	.	.	.	.	.	.	.	.	.	.	.
.	.	.	.	.	.	16bJJ)	.	16ffJJ)	.	32D	.	.	.	.	.	.	.	.	.	.	.	.	.	.	.	.	.	.	.	.	.	.	.	.	.	.
.	.	.	.	12ryy	.	.	.	.	.	.	.	.	.	.	.	12ryy	4ryy	.	.	.	.	.	.	.	.	.	.	.	.	.	.	.	.	.	.	.
.	.	.	.	.	.	.	.	.	.	32D	.	.	.	.	.	.	.	.	.	.	.	.	.	.	.	.	.	.	.	.	.	.	.	.	.	.
.	.	.	.	.	.	8r	.	8r	.	32D	.	.	.	.	.	.	.	.	.	8BX'J	.	.	.	8f'J	.	.	.	.	.	.	8a-XJ'	.	8dd'J	.	8ff'J	.
.	.	.	.	.	.	.	.	.	.	32D	.	.	.	.	.	.	.	.	.	.	.	.	.	.	.	.	.	.	.	.	.	.	.	.	.	.
.	.	.	.	12ryy	.	.	.	.	.	.	.	.	.	.	.	12ryy	.	.	.	.	.	.	.	.	.	.	.	.	.	.	.	.	.	.	.	.
.	.	.	.	.	.	.	.	.	.	32D	.	.	.	.	.	.	.	.	.	.	.	.	.	.	.	.	.	.	.	.	.	.	.	.	.	.
.	.	.	.	.	.	.	.	.	.	32DJJJ	.	.	.	.	.	.	.	.	.	.	.	.	.	.	.	.	.	.	.	.	.	.	.	.	.	.
=12	=12	=12	=12	=12	=12	=12	=12	=12	=12	=12	=12	=12	=12	=12	=12	=12	=12	=12	=12	=12	=12	=12	=12	=12	=12	=12	=12	=12	=12	=12	=12	=12	=12	=12	=12	=12
12ryy	.	12ryy	.	12ryy	.	(16ddLL	.	(16ffLL	.	32DLLL]]	[	4AA-X^	.	4A-X^	.	12ryy	.	2B]	[	8r	.	2B]	[	8r	.	12ryy	.	12ryy	.	2a-X	8r	.	8r	.	8r	.
.	.	.	.	.	.	.	.	.	.	32D	.	.	.	.	.	.	.	.	.	.	.	.	.	.	.	.	.	.	.	.	.	.	.	.	.	.
.	.	.	.	.	.	16ffJJ)	.	16aa-XJJ)	.	32D	.	.	.	.	.	.	.	.	.	.	.	.	.	.	.	.	.	.	.	.	.	.	.	.	.	.
12ryy	.	12ryy	.	12ryy	.	.	.	.	.	.	.	.	.	.	.	12ryy	.	.	.	.	.	.	.	.	.	12ryy	.	12ryy	.	.	.	.	.	.	.	.
.	.	.	.	.	.	.	.	.	.	32D	.	.	.	.	.	.	.	.	.	.	.	.	.	.	.	.	.	.	.	.	.	.	.	.	.	.
.	.	.	.	.	.	8r	.	8r	.	32D	.	.	.	.	.	.	.	.	.	8d'L	.	.	.	8a-X'L	.	.	.	.	.	.	8ddL'	.	8ff'L	.	8gg#X'L	.
.	.	.	.	.	.	.	.	.	.	32D	.	.	.	.	.	.	.	.	.	.	.	.	.	.	.	.	.	.	.	.	.	.	.	.	.	.
12ryy	.	12ryy	.	12ryy	.	.	.	.	.	.	.	.	.	.	.	12ryy	.	.	.	.	.	.	.	.	.	12ryy	4ryy	12ryy	4ryy	.	.	.	.	.	.	.
.	.	.	.	.	.	.	.	.	.	32D	.	.	.	.	.	.	.	.	.	.	.	.	.	.	.	.	.	.	.	.	.	.	.	.	.	.
.	.	.	.	.	.	.	.	.	.	32D	.	.	.	.	.	.	.	.	.	.	.	.	.	.	.	.	.	.	.	.	.	.	.	.	.	.
4ryy	4ryy	4ryy	4ryy	12ryy	.	(16ffLL	.	(16bbLL	.	32D	.	4C-X^	[	4c-X^	[	12ryy	.	.	.	8r	.	.	.	8r	.	4ryy	4ryy	4ryy	4ryy	.	8r	.	8r	.	8r	.
.	.	.	.	.	.	.	.	.	.	32D	.	.	.	.	.	.	.	.	.	.	.	.	.	.	.	.	.	.	.	.	.	.	.	.	.	.
.	.	.	.	.	.	16aa-XJJ)	.	16dddJJ)	.	32D	.	.	.	.	.	.	.	.	.	.	.	.	.	.	.	.	.	.	.	.	.	.	.	.	.	.
.	.	.	.	12ryy	.	.	.	.	.	.	.	.	.	.	.	12ryy	.	.	.	.	.	.	.	.	.	.	.	.	.	.	.	.	.	.	.	.
.	.	.	.	.	.	.	.	.	.	32D	.	.	.	.	.	.	.	.	.	.	.	.	.	.	.	.	.	.	.	.	.	.	.	.	.	.
.	.	.	.	.	.	8r	[	8r	[	32D	.	.	.	.	.	.	.	.	.	8f'J	[	.	.	8bX'J	[	.	.	.	.	.	8ffJ'	[	8aa-X'J	[	8bb'J	[
.	.	.	.	.	.	.	.	.	.	32D	.	.	.	.	.	.	.	.	.	.	.	.	.	.	.	.	.	.	.	.	.	.	.	.	.	.
.	.	.	.	12ryy	4ryy	.	.	.	.	.	.	.	.	.	.	12ryy	4ryy	.	.	.	.	.	.	.	.	.	.	.	.	.	.	.	.	.	.	.
.	.	.	.	.	.	.	.	.	.	32D	.	.	.	.	.	.	.	.	.	.	.	.	.	.	.	.	.	.	.	.	.	.	.	.	.	.
.	.	.	.	.	.	.	.	.	.	32DJJJ	.	.	.	.	.	.	.	.	.	.	.	.	.	.	.	.	.	.	.	.	.	.	.	.	.	.
*	*	*	*	*	*	*	*	*	*	*Xtremolo	*	*	*	*	*	*	*	*	*	*	*	*	*	*	*	*	*	*	*	*	*	*	*	*	*	*
*	*	*	*	*	*	*	*	*	*	*	*	*	*	*	*	*	*	*	*	*	*	*	*	*	*	*	*	*	*	*v	*v	*	*	*	*	*
=	=	=	=	=	=	=	=	=	=	=	=	=	=	=	=	=	=	=	=	=	=	=	=	=	=	=	=	=	=	=	=	=	=	=	=
*-	*-	*-	*-	*-	*-	*-	*-	*-	*-	*-	*-	*-	*-	*-	*-	*-	*-	*-	*-	*-	*-	*-	*-	*-	*-	*-	*-	*-	*-	*-	*-	*-	*-	*-	*-
!!!system-decoration: [(s1,s2,s3[(s4,s5)])][([(s6,s7,s8,s9)]s10[(s11,s12)])][(s13)][([(s14,s15)]s16,s17,s18)]
